X: 22672
T: Lakes Of Ponchartrain, The
R: waltz
M: 3/4
K: Gmajor
d|G2 G e2 c|d2 c A2 F|D2 G G2 G|G3 - G2 d|
d2 B d2 f|g2 g f2 d|e2 e f2 d|B3-B2 d|
d2 B d2 f|g3-f2 d|e2 e f2 d|B3 B2 d|
G2 G e2 c|d2 c A2 F|D2 G G2 G|G3-G2|

